dist/img/sprites/searchInput.svg

<svg width="25" height="25" viewBox="0 0 25 25" fill="none" xmlns="http://www.w3.org/2000/svg">
<path d="M17.8674 15.7233H16.7381L16.3379 15.3373C17.7387 13.7078 18.582 11.5923 18.582 9.29102C18.582 4.15952 14.4225 0 9.29102 0C4.15952 0 0 4.15952 0 9.29102C0 14.4225 4.15952 18.582 9.29102 18.582C11.5923 18.582 13.7078 17.7387 15.3373 16.3379L15.7233 16.7381V17.8674L22.8702 25L25 22.8702L17.8674 15.7233ZM9.29102 15.7233C5.73185 15.7233 2.85878 12.8502 2.85878 9.29102C2.85878 5.73185 5.73185 2.85878 9.29102 2.85878C12.8502 2.85878 15.7233 5.73185 15.7233 9.29102C15.7233 12.8502 12.8502 15.7233 9.29102 15.7233Z" fill="var(--grey)"/>
</svg>

<svg width="25" height="25" viewBox="0 0 25 25" fill="none" xmlns="http://www.w3.org/2000/svg"><path d="M17.867 15.723h-1.129l-.4-.386a9.25 9.25 0 002.244-6.046A9.29 9.29 0 009.291 0 9.29 9.29 0 000 9.291a9.29 9.29 0 009.291 9.291 9.25 9.25 0 006.046-2.244l.386.4v1.13L22.87 25 25 22.87l-7.133-7.147zm-8.576 0a6.424 6.424 0 01-6.432-6.432A6.424 6.424 0 019.29 2.859a6.424 6.424 0 016.432 6.432 6.424 6.424 0 01-6.432 6.432z" fill="var(--grey)"/></svg>
